X:40
T:Reel 40
M:4/4
K:Dmix
L:1/8
G| (3FED FG A2AB|cAdB cAGB|Addc A2AG|EGGE FDDG|FEFG A2AB|cAdB cAGc|Addc A2AG|EFGE FDD|g|fdeg fdec|Addc Addg|fdeg fdec|ABcd efge|fgfd e2eg|fded cAGc|Addc A2AG|EFGE FDD|
